X: 109102
Q:"Reel."
M: C
L: 1/8
K: G	% or E dorian
|: ue |\
d2(GA) BABe | dGGA BAAe |\
dBGA BABd | efge dBB :|\
d |\
g2ge f2fd | e2(ec) dBBd |
g2ge f2fd | efge dBBd |\
gage fgfd | efge dcBA |\


